X: 5852
T: Calliope House
R: jig
M: 6/8
K: Dmajor
|:dAA fAA|eAA fAA|B2e e2d|efd BdB|ABA A2F|
A2B d2e|1 f2f fed|e3 A2c:|2 f3 e3|d3- dfg||
|:a2a faa|eaa daa|g2g fgf|edB Bcd|ABA A2F|
A2B d2e|1 f2f fed|e3 efg:|2 f3 e3|d3- dAc||

